X: 21994
T: Kitty Tyrell
R: waltz
M: 3/4
K: Emajor
(E3/2C/2)|B,2 C2 E2|E4 EF|G2 e2 d2|c4 de|
(cB) (AG) (FE)|E4 EF|G2 (AG) (FE)|C4 (EC)|
B,2 C2 E2|E4 FF|G2 e2 d2|c4 de|
(cB) (AG) (FE)|{E}C4 (E/2F/2)G|{G}F2 E2 E2|E4 (B/2c/2)d|
e2 d2 e2|c3 d e2|f2 (ed) (cB)|B4 (B/2c/2)d|
e2 d2 e2|B2 (cB)(AG)|G2 ((3EFG) ((3GFE)|C4 (E3/2C/2)|
B,2 C2 E2|E3 E F2|G2 e2 d2|{d}c4 de|
(cB) (AG) (FE)|E2 C2 (E/2F/2)G|(GF) E2 E2|E4 z2||

